X:1
T:A Bird In A Gilded Cage
T:A Bird In A Gilded Cage
T:
T:Harry Von Tilzer
T:Arthur J. Lamb
C:Harry Von Tilzer
Z:All Rights Reserved
L:1/8
M:3/4
K:Bb
V:1 treble 
%%MIDI program 127
V:1
 d2 |"Bb" c4 BF | D4 B2 |"Cm" A4 G2 | C4 D2 |"F7" E4 FA | d4 c2 |"Bb" F4-"F+" F2- |"F7" F4 F2 | %9
w: The|ball- room was|filled with|fash- ions|throng, It|shone with a|thou- sand|lights _|_ And|
w: I|stood in a|church- yard|just at|eve, When|sun- set a-|dorned the|west, _|_ And|
"C7" G4 ^FG | c2 B2 G2 |"Bb" F4 G2 |"D7" A4"Gm" B2 |"C7" d4 cB | A4 G2 |"F7" c6- | c2 z2 d2 | %17
w: there was a|wo- man who|passed a-|long, The|fair- est of|all the|sights,|_ A|
w: looked at the|peo- ple who'd|come to|grieve, For|loved ones now|laid at|rest,|_ A|
"Bb" c4 BF | D2 F2 B2 |"Cm" A4 G2 | C4 CD |"F7" E2 F2 A2 | c4"A7" ^c2 |"D7" d4-"Gm" d2- | %24
w: girl to her|lov- er then|soft- ly|sighed, There's _|rich- es at|her com-|mand, _|
w: tall mar- ble|mon- u- ment|marked the|grave, Of _|one who'd been|fash- ione's|queen, _|
"D7" d4"G7" dd |"C7" c2"G7" =B2"C7" c2 | G4 AB |"Bb" F4 B2 | d4 F^F |"C7" G4 AB | A4 G2 |"F7" c6- | %32
w: _ But she|mar- ried for|wealth, not for|love he|cried, Though she|lives in a|man- sion|grand.|
w: _ And I|thought she is|hap- pi- er|here at|rest, Than to|have peo- ple|say when|seen.|
 c4"^CHORUS" F2 |"Bb" d4 ^cd | B4 AB |"Cm" c4 E2 | G4 c2 |"F7" d4 cA | E4 c2 |"Bb" B6- | B4 F^F | %41
w: _ She's|on- ly a|bird in a|gild- ed|cage, A|beau- ti- ful|sight to|see.|_ You may|
w: _ _|||||||||
"Eb" G4 G2 |"C7" c4 BG |"Bb" F4 G2 |"Cdim" A4"Gm" B2 |"C7" d4 cB | A4 G2 |"F7" c6- | c4 F2 | %49
w: think she's|hap- py and|free from|care, She's|not, though she|seems to|be,|_ 'Tis|
w: ||||||||
"Bb" d4 ^cd | B4 AB |"Cm" c4 E2 | G4 c2 |"F7" d4 cA | E4 c2 |"Bb" B6- | B4 F^F |"Eb" G4 ^FG | %58
w: sad when you|think of her|wast- ed|life, For|youth can not|mate with|age,|_ And her|beau- ty was|
w: |||||||||
"C7" c4 BG |"Bb" F4 B2 | d4 F^F |"C7" G4 AB |"F7" d4 c2 |"Bb" B6- :| B4 z2 |] %65
w: sold, for an|old man's|gold. She's a|bird in a|gild- ed|cage.|_|
w: |||||||

